logo/spinnaker.svg

<?xml version="1.0" encoding="UTF-8"?>
<svg width="256px" height="297px" viewBox="0 0 256 297" version="1.1" xmlns="http://www.w3.org/2000/svg" xmlns:xlink="http://www.w3.org/1999/xlink" preserveAspectRatio="xMidYMid">
    <defs>
        <linearGradient x1="82.1790632%" y1="6.03160989%" x2="34.6134572%" y2="106.134929%" id="linearGradient-1">
            <stop stop-color="#2B3990" offset="0%"></stop>
            <stop stop-color="#1E62A7" offset="16%"></stop>
            <stop stop-color="#1485BC" offset="32%"></stop>
            <stop stop-color="#0BA1CC" offset="49%"></stop>
            <stop stop-color="#05B4D7" offset="66%"></stop>
            <stop stop-color="#01C0DE" offset="83%"></stop>
            <stop stop-color="#00C4E0" offset="100%"></stop>
        </linearGradient>
        <linearGradient x1="-31668%" y1="78954%" x2="-19806%" y2="78954%" id="linearGradient-2">
            <stop stop-color="#2B3990" offset="0%"></stop>
            <stop stop-color="#1E62A7" offset="16%"></stop>
            <stop stop-color="#1485BC" offset="32%"></stop>
            <stop stop-color="#0BA1CC" offset="49%"></stop>
            <stop stop-color="#05B4D7" offset="66%"></stop>
            <stop stop-color="#01C0DE" offset="83%"></stop>
            <stop stop-color="#00C4E0" offset="100%"></stop>
        </linearGradient>
    </defs>
		<g>
				<path d="M21.9428571,218.332687 C120.803435,228.132251 200.18436,169.657483 219.985989,144.600709 C239.787621,119.543935 209.763198,0 209.763198,0 C177.216616,79.9558442 118.039793,201.139761 21.9428571,218.373014 L21.9428571,218.332687 Z" fill="url(#linearGradient-1)" style="mix-blend-mode: multiply;"></path>
				<path d="M67.6571429,186.423921 C125.97178,188.570697 170.358711,151.901065 181.058769,136.699201 C191.758826,121.497337 175.376482,53.0285714 175.376482,53.0285714 C159.170438,100.458924 114.078306,169.571722 67.6571429,186.423921 Z" fill="url(#linearGradient-2)" style="mix-blend-mode: multiply;"></path>
				<path d="M3.8046938,269.930368 C5.60808671,271.801726 7.75277288,273.323844 10.1274031,274.417693 C12.4839267,275.533711 15.0656254,276.114622 17.6814497,276.117438 C20.449538,276.284244 23.1899608,275.495457 25.4291899,273.887373 C27.2403156,272.477981 28.2664333,270.309667 28.1962399,268.040252 C28.2292731,266.935973 28.0069392,265.838722 27.5459831,264.831133 C27.1234277,263.968583 26.5254219,263.200344 25.7889064,262.573873 C24.982588,261.902568 24.0950309,261.331668 23.1463735,260.874128 L19.8812546,259.296764 L12.6730892,256.210028 C11.4386938,255.677647 10.2375278,255.073743 9.07592413,254.401499 C7.86018114,253.707657 6.7514069,252.846841 5.78313457,251.845083 C4.78266275,250.799382 3.97716551,249.588846 3.40347154,248.268822 C2.08798267,245.048397 2.1830933,241.43714 3.6663413,238.28792 C4.45425788,236.681143 5.57595008,235.254438 6.95913084,234.099749 C8.43129717,232.894469 10.1208645,231.97192 11.9398209,231.380158 C13.9770095,230.70921 16.1141312,230.378282 18.2625302,230.401104 C21.1209417,230.3824 23.9506736,230.961816 26.5636804,232.100849 C28.999782,233.151128 31.2110181,234.646144 33.0800832,236.506587 L29.6351058,240.585975 C28.1473523,239.162708 26.4201068,238.003357 24.5298986,237.159291 C22.5364198,236.307778 20.3804844,235.885842 18.2071892,235.921876 C15.7891436,235.802891 13.3994636,236.477363 11.4140814,237.839188 C9.71404604,239.083787 8.7505794,241.074401 8.84072488,243.15599 C8.80780548,244.21707 9.06076785,245.267856 9.57399314,246.201931 C10.095379,247.034785 10.7767589,247.759901 11.5801044,248.336812 C12.4159242,248.97685 13.3151303,249.532632 14.264143,249.995761 C15.2326105,250.476222 16.2287485,250.929488 17.252557,251.355558 L24.3915461,254.374305 C25.7979919,254.962512 27.1576477,255.653407 28.4591097,256.441194 C29.686848,257.183587 30.7963968,258.099988 31.7518992,259.160784 C32.6950649,260.22808 33.4354805,261.453222 33.9378688,262.777841 C34.5004473,264.311801 34.7724156,265.934058 34.7403132,267.564323 C34.7446746,269.440218 34.3389074,271.295137 33.5504817,273.003507 C32.7501438,274.721768 31.5849523,276.251802 30.1331749,277.490832 C28.5576461,278.82654 26.7350846,279.85146 24.7650979,280.509579 C22.4700504,281.266907 20.0605917,281.634772 17.639944,281.597416 C10.9854019,281.65256 4.60281093,279.005548 0,274.281715 L3.8046938,269.930368 Z" fill="#149CB5"></path>
				<path d="M40.7558111,283.859644 L40.7558111,296.228571 L34.7428571,296.228571 L34.7428571,244.113072 L39.7250189,244.113072 L40.2404149,248.331299 L40.4650748,248.331299 C42.0830409,246.915357 43.8572924,245.700491 45.7511881,244.711788 C47.6190797,243.721139 49.6894572,243.203355 51.7905726,243.201392 C53.891241,243.171079 55.9707476,243.636551 57.8696029,244.562108 C59.6143912,245.42808 61.1256426,246.722467 62.2702923,248.331299 C63.4952035,250.106518 64.391243,252.099357 64.9133489,254.2096 C65.5509926,256.732434 65.8576693,259.331825 65.8252034,261.938478 C65.8709208,264.771114 65.4509164,267.591303 64.5829669,270.27968 C63.8443816,272.549961 62.7015967,274.658745 61.2130695,276.49816 C59.8741892,278.144801 58.2004908,279.468654 56.3101994,280.376207 C54.4785143,281.26409 52.4803248,281.728523 50.455829,281.736925 C48.7491099,281.726259 47.0641902,281.341246 45.5133131,280.607528 C43.7553487,279.778172 42.0967576,278.741634 40.5707972,277.518698 L40.7558111,283.859644 Z M40.7558111,272.620114 C42.1399737,273.886021 43.7274425,274.894374 45.4472366,275.600086 C46.7100103,276.12392 48.0513686,276.418562 49.4118215,276.470947 C50.829788,276.483558 52.2285389,276.132853 53.4821288,275.450408 C54.7501926,274.751033 55.8515575,273.770379 56.706658,272.579293 C57.6777128,271.204776 58.3985995,269.660314 58.8343186,268.020888 C59.3697653,266.032048 59.6278437,263.974917 59.6008049,261.911263 C59.6111517,260.083555 59.4384397,258.259621 59.0854089,256.468392 C58.8001578,254.954267 58.2396954,253.509253 57.4334985,252.209344 C56.6941021,251.061972 55.6848761,250.125797 54.4997056,249.487909 C53.1722183,248.804334 51.701677,248.467856 50.2179538,248.508191 C48.6138255,248.533648 47.0415859,248.973456 45.6454658,249.787266 C43.8662903,250.822903 42.2080064,252.064691 40.7029499,253.488419 L40.7558111,272.620114 Z" fill="#149CB5"></path>
				<path d="M72.2325001,236.411608 C71.0331112,236.442801 69.8669136,236.045904 68.9768069,235.303583 C68.1343552,234.567409 67.6571429,233.543985 67.6571429,232.473446 C67.6571429,231.402907 68.1343552,230.379483 68.9768069,229.64331 C70.8654301,228.214135 73.5851003,228.214135 75.4737234,229.64331 C76.3200507,230.377503 76.8,231.401666 76.8,232.473446 C76.8,233.545227 76.3200507,234.56939 75.4737234,235.303583 C74.5880552,236.043875 73.427181,236.440724 72.2325001,236.411608 Z M68.8610489,243.80734 L75.4447839,243.80734 L75.4447839,279.771429 L68.8610489,279.771429 L68.8610489,243.80734 Z" fill="#149CB5"></path>
				<path d="M80.4571429,244.078479 L85.5987348,244.078479 L86.1250395,249.219112 L86.3544545,249.219112 C88.0059087,247.579988 89.8496155,246.139017 91.8469162,244.926418 C93.8866805,243.74153 96.2251202,243.144614 98.5944123,243.204041 C102.435987,243.204041 105.242945,244.37879 107.015287,246.728291 C108.78763,249.077789 109.687296,252.553457 109.714286,257.155295 L109.714286,279.771429 L103.574064,279.771429 L103.574064,257.963487 C103.574064,254.589394 103.025268,252.155986 101.927675,250.663259 C100.677098,249.099664 98.7094938,248.25826 96.6916184,248.424168 C94.919215,248.390694 93.1766303,248.874891 91.6849763,249.81532 C89.9033534,251.019454 88.2487448,252.395357 86.7458092,253.922525 L86.7458092,279.771429 L80.6055877,279.771429 L80.4571429,244.078479 Z" fill="#149CB5"></path>
				<path d="M113.371429,244.07857 L118.468445,244.07857 L118.995722,249.219191 L119.225561,249.219191 C120.880068,247.58007 122.727183,246.139105 124.728175,244.926508 C126.771426,243.740954 129.114388,243.143991 131.488144,243.204136 C135.336819,243.204136 138.148966,244.378882 139.924584,246.728375 C141.700202,249.077868 142.601532,252.553527 142.628571,257.155354 L142.628571,279.771429 L136.355321,279.771429 L136.355321,257.963544 C136.355321,254.58946 135.80551,252.156056 134.705889,250.663333 C133.452999,249.099743 131.481758,248.258341 129.460153,248.424249 C127.684474,248.390775 125.938668,248.87497 124.444257,249.815397 C122.659341,251.019527 121.001674,252.395427 119.49596,253.922591 L119.49596,279.771429 L113.371429,279.771429 L113.371429,244.07857 Z" fill="#149CB5"></path>
				<path d="M146.300188,271.200236 C146.208924,267.342422 148.349622,263.767515 151.823758,261.976026 C155.506139,259.838654 161.31049,258.344304 169.236814,257.492977 C169.237702,256.356869 169.122041,255.223574 168.891591,254.110314 C168.681313,253.062424 168.263734,252.06541 167.662596,251.175956 C167.062742,250.314814 166.262686,249.606908 165.328888,249.111038 C164.164344,248.541296 162.872349,248.270263 161.57286,248.323109 C159.479416,248.303536 157.404998,248.715392 155.483124,249.532173 C153.728179,250.278877 152.049688,251.18867 150.470484,252.24917 L147.94345,247.956314 C149.961258,246.70662 152.086804,245.633807 154.295556,244.750256 C156.924233,243.693981 159.741628,243.167358 162.580912,243.201565 C167.119445,243.201565 170.410573,244.560066 172.454294,247.277063 C174.642311,250.509475 175.716963,254.347869 175.519875,258.226567 L175.519875,280.68256 L170.31391,280.68256 L169.775362,276.321777 L169.623464,276.321777 C167.846589,277.770487 165.910497,279.019019 163.851333,280.044065 C161.825807,281.065165 159.581872,281.596092 157.305902,281.592755 C154.436401,281.694387 151.634154,280.723681 149.462432,278.875756 C147.300142,276.907471 146.14108,274.094149 146.300188,271.200236 Z M152.500396,270.751931 C152.327872,272.47255 153.030836,274.165868 154.37841,275.275734 C155.729623,276.210582 157.353387,276.687428 159.0044,276.634233 C160.78149,276.635906 162.531605,276.20664 164.099893,275.384413 C165.949848,274.385046 167.662245,273.156957 169.195387,271.73005 L169.195387,261.568475 C166.539883,261.884699 163.906627,262.361072 161.31049,262.9949 C159.507783,263.416781 157.770771,264.074732 156.145952,264.951139 C155.010111,265.562979 154.057695,266.457785 153.384167,267.545872 C152.807815,268.519382 152.50295,269.625339 152.500396,270.751931 Z" fill="#149CB5"></path>
				<polygon fill="#149CB5" points="177.371429 226.742857 183.596891 226.742857 183.596891 262.650699 183.832598 262.650699 199.735951 243.581378 206.668535 243.581378 194.189881 258.108464 208.457143 279.771429 201.524557 279.771429 190.612667 262.301296 183.680082 270.203171 183.680082 279.731112 177.45462 279.731112"></polygon>
				<path d="M202.97707,262.555666 C202.914258,259.780123 203.376464,257.017605 204.339547,254.412385 C205.182665,252.180917 206.439861,250.127451 208.045489,248.359214 C209.515899,246.749791 211.300919,245.456613 213.29103,244.559016 C215.209523,243.676665 217.295486,243.213881 219.408558,243.201803 C221.545772,243.169137 223.666366,243.580524 225.635083,244.409724 C227.426734,245.178463 229.006288,246.365533 230.24026,247.870618 C231.529298,249.480104 232.491818,251.32395 233.074214,253.299471 C233.755109,255.594205 234.0858,257.977872 234.055197,260.370553 C234.068546,261.501389 233.991093,262.631477 233.823578,263.750014 L209.135472,263.750014 C209.189469,267.220749 210.48968,270.557422 212.800538,273.155502 C215.027474,275.478972 218.148021,276.739171 221.370525,276.616395 C223.02974,276.635072 224.679777,276.368781 226.248197,275.829211 C227.741583,275.29995 229.171761,274.608106 230.512755,273.766248 L232.706344,277.837888 C231.005363,278.884109 229.207782,279.765793 227.33818,280.470881 C225.187566,281.253892 222.910601,281.635754 220.621162,281.597369 C218.251297,281.602747 215.903729,281.141506 213.713399,280.240155 C211.609384,279.387165 209.706893,278.10679 208.127237,276.480675 C206.486062,274.760086 205.215616,272.723218 204.394046,270.495364 C203.44301,267.956094 202.962893,265.265865 202.97707,262.555666 Z M228.659785,259.773378 C228.659785,256.009373 227.865006,253.136605 226.275447,251.155074 C224.651778,249.154635 222.16469,248.049609 219.585679,248.182777 C218.299293,248.178203 217.026677,248.446548 215.852489,248.96996 C214.646084,249.509531 213.5546,250.274302 212.63704,251.222934 C211.630164,252.273218 210.822374,253.496315 210.252703,254.833123 C209.589369,256.402673 209.171238,258.064159 209.012848,259.759806 L228.659785,259.773378 Z" fill="#149CB5"></path>
				<path d="M235.89924,244.024102 L240.998828,244.024102 L241.526371,250.499491 L241.756326,250.499491 C242.867015,248.435701 244.411524,246.626622 246.28779,245.191795 C247.943203,243.905423 249.992426,243.204187 252.104294,243.20141 C253.440247,243.178843 254.766543,243.427306 256,243.931218 L254.796118,249.238914 C254.25538,249.060944 253.704316,248.914723 253.145854,248.801029 C252.525297,248.693636 251.895687,248.644758 251.265635,248.655067 C249.489044,248.732827 247.787663,249.380844 246.423056,250.499491 C244.40446,252.20777 242.890811,254.416688 242.040388,256.895263 L242.040388,279.771429 L235.885714,279.771429 L235.89924,244.024102 Z" fill="#149CB5"></path>
		</g>
</svg>

<svg viewBox="0 0 256 297" xmlns="http://www.w3.org/2000/svg" xmlns:xlink="http://www.w3.org/1999/xlink"><defs><linearGradient id="a" x1="82.179%" x2="34.613%" y1="6.031%" y2="106.134%"><stop offset="0%" stop-color="#2B3990"/><stop offset="16%" stop-color="#1E62A7"/><stop offset="32%" stop-color="#1485BC"/><stop offset="49%" stop-color="#0BA1CC"/><stop offset="66%" stop-color="#05B4D7"/><stop offset="83%" stop-color="#01C0DE"/><stop offset="100%" stop-color="#00C4E0"/></linearGradient><linearGradient id="b" x1="-31668%" x2="-19806%" y1="78954%" y2="78954%" xlink:href="#a"/></defs><path style="mix-blend-mode:multiple;" fill="url(#a)" d="M21.94 218.33c98.86 9.79 178.24-48.68 198.04-73.74C239.78 119.53 209.75-.02 209.75-.02 177.2 79.93 118.02 201.11 21.92 218.35v-.05Z"/><path style="mix-blend-mode:multiple;" fill="url(#b)" d="M67.65 186.42c58.31 2.14 102.7-34.53 113.4-49.73 10.7-15.21-5.69-83.68-5.69-83.68 -16.21 47.43-61.3 116.54-107.72 133.39Z"/><g fill="#149CB5"><path d="M3.8 269.93c1.8 1.87 3.94 3.39 6.32 4.48 2.35 1.11 4.93 1.69 7.55 1.69 2.76.16 5.5-.63 7.74-2.24 1.81-1.41 2.83-3.58 2.76-5.85 .03-1.11-.19-2.21-.66-3.21 -.43-.87-1.03-1.64-1.76-2.26 -.81-.68-1.7-1.25-2.65-1.7l-3.27-1.58 -7.21-3.09c-1.24-.54-2.44-1.14-3.6-1.81 -1.22-.7-2.33-1.56-3.3-2.56 -1.01-1.05-1.81-2.26-2.38-3.58 -1.32-3.23-1.23-6.84.26-9.99 .78-1.61 1.9-3.04 3.29-4.19 1.47-1.21 3.16-2.13 4.98-2.72 2.03-.68 4.17-1.01 6.32-.98 2.85-.02 5.68.56 8.3 1.69 2.43 1.05 4.64 2.54 6.51 4.4l-3.45 4.07c-1.49-1.43-3.22-2.59-5.11-3.43 -2-.86-4.15-1.28-6.33-1.24 -2.42-.12-4.81.55-6.8 1.91 -1.71 1.24-2.67 3.23-2.58 5.31 -.04 1.06.22 2.11.73 3.04 .52.83 1.2 1.55 2 2.13 .83.64 1.73 1.19 2.68 1.65 .96.48 1.96.93 2.98 1.35l7.13 3.01c1.4.58 2.76 1.27 4.06 2.06 1.22.74 2.33 1.65 3.29 2.71 .94 1.06 1.68 2.29 2.18 3.61 .56 1.53.83 3.15.8 4.78 0 1.87-.41 3.73-1.19 5.43 -.81 1.71-1.97 3.24-3.42 4.48 -1.58 1.33-3.4 2.36-5.37 3.01 -2.3.75-4.71 1.12-7.13 1.08 -6.66.05-13.04-2.6-17.64-7.32l3.8-4.36Z"/><path d="M40.75 283.85v12.36h-6.02v-52.12h4.98l.51 4.21h.22c1.61-1.42 3.39-2.64 5.28-3.62 1.86-1 3.93-1.51 6.03-1.52 2.1-.04 4.18.43 6.07 1.36 1.74.86 3.25 2.16 4.4 3.76 1.22 1.77 2.12 3.76 2.64 5.87 .63 2.52.94 5.12.91 7.72 .04 2.83-.38 5.65-1.25 8.34 -.74 2.27-1.89 4.37-3.37 6.21 -1.34 1.64-3.02 2.97-4.91 3.87 -1.84.88-3.83 1.35-5.86 1.36 -1.71-.02-3.4-.4-4.95-1.13 -1.76-.83-3.42-1.87-4.95-3.09l.18 6.34Zm0-11.24c1.38 1.26 2.97 2.27 4.69 2.97 1.26.52 2.6.81 3.96.87 1.41.01 2.81-.34 4.07-1.03 1.26-.7 2.36-1.69 3.22-2.88 .97-1.38 1.69-2.92 2.12-4.56 .53-1.99.79-4.05.76-6.11 .01-1.83-.17-3.66-.52-5.45 -.29-1.52-.85-2.96-1.66-4.26 -.74-1.15-1.75-2.09-2.94-2.73 -1.33-.69-2.8-1.03-4.29-.98 -1.61.02-3.18.46-4.58 1.27 -1.78 1.03-3.44 2.27-4.95 3.7l.05 19.13Z"/><path d="M72.23 236.41c-1.2.03-2.37-.37-3.26-1.11 -.85-.74-1.32-1.76-1.32-2.84 0-1.08.47-2.1 1.31-2.84 1.88-1.43 4.6-1.43 6.49 0 .84.73 1.32 1.75 1.32 2.83 0 1.07-.48 2.09-1.33 2.83 -.89.74-2.05 1.13-3.25 1.1Zm-3.38 7.39h6.58v35.96h-6.59v-35.97Z"/><path d="M80.45 244.07h5.14l.52 5.14h.22c1.65-1.64 3.49-3.09 5.49-4.3 2.03-1.19 4.37-1.79 6.74-1.73 3.84 0 6.64 1.17 8.42 3.52 1.77 2.34 2.67 5.82 2.69 10.42v22.61h-6.15v-21.81c0-3.38-.55-5.81-1.65-7.31 -1.26-1.57-3.22-2.41-5.24-2.24 -1.78-.04-3.52.45-5.01 1.39 -1.79 1.2-3.44 2.58-4.94 4.1v25.84h-6.15l-.15-35.7Z"/><path d="M113.37 244.07h5.09l.52 5.14h.22c1.65-1.64 3.5-3.09 5.5-4.3 2.04-1.19 4.38-1.79 6.75-1.73 3.84 0 6.66 1.17 8.43 3.52 1.77 2.34 2.67 5.82 2.7 10.42v22.61h-6.28v-21.81c0-3.38-.55-5.81-1.65-7.31 -1.26-1.57-3.23-2.41-5.25-2.24 -1.78-.04-3.53.45-5.02 1.39 -1.79 1.2-3.45 2.58-4.95 4.1v25.84h-6.13V244Z"/><path d="M146.3 271.2c-.1-3.86 2.04-7.44 5.52-9.23 3.68-2.14 9.48-3.64 17.41-4.49 0-1.14-.12-2.27-.35-3.39 -.22-1.05-.63-2.05-1.23-2.94 -.6-.87-1.4-1.57-2.34-2.07 -1.17-.57-2.46-.85-3.76-.79 -2.1-.02-4.17.39-6.09 1.2 -1.76.74-3.44 1.65-5.02 2.71l-2.53-4.3c2.01-1.25 4.14-2.33 6.35-3.21 2.62-1.06 5.44-1.59 8.28-1.55 4.53 0 7.82 1.35 9.87 4.07 2.18 3.23 3.26 7.07 3.06 10.94v22.45h-5.21l-.54-4.37h-.16c-1.78 1.44-3.72 2.69-5.78 3.72 -2.03 1.02-4.27 1.55-6.55 1.54 -2.87.1-5.68-.87-7.85-2.72 -2.17-1.97-3.33-4.79-3.17-7.68Zm6.2-.45c-.18 1.72.53 3.41 1.87 4.52 1.35.93 2.97 1.41 4.62 1.35 1.77 0 3.52-.43 5.09-1.25 1.84-1 3.56-2.23 5.09-3.66v-10.17c-2.66.31-5.29.79-7.89 1.42 -1.81.42-3.54 1.07-5.17 1.95 -1.14.61-2.09 1.5-2.77 2.59 -.58.97-.89 2.07-.89 3.2Z"/><path d="M177.37 226.74l6.22 0 0 35.9 .23 0 15.9-19.07 6.93 0 -12.48 14.52 14.26 21.66 -6.94 0 -10.92-17.48 -6.94 7.9 0 9.52 -6.23 0Z"/><path d="M202.97 262.55c-.07-2.78.39-5.54 1.36-8.15 .84-2.24 2.1-4.29 3.7-6.06 1.47-1.61 3.25-2.91 5.24-3.81 1.91-.89 4-1.35 6.11-1.36 2.13-.04 4.25.37 6.22 1.2 1.79.76 3.37 1.95 4.6 3.46 1.28 1.6 2.25 3.45 2.83 5.42 .68 2.29 1.01 4.67.98 7.07 .01 1.13-.07 2.26-.24 3.37h-24.69c.05 3.47 1.35 6.8 3.66 9.4 2.22 2.32 5.34 3.58 8.56 3.46 1.65.01 3.3-.25 4.87-.79 1.49-.53 2.92-1.23 4.26-2.07l2.19 4.07c-1.71 1.04-3.5 1.92-5.37 2.63 -2.16.78-4.43 1.16-6.72 1.12 -2.37 0-4.72-.46-6.91-1.36 -2.11-.86-4.01-2.14-5.59-3.76 -1.65-1.73-2.92-3.76-3.74-5.99 -.96-2.54-1.44-5.23-1.42-7.94Zm25.68-2.79c0-3.77-.8-6.64-2.39-8.62 -1.63-2.01-4.12-3.11-6.69-2.98 -1.29-.01-2.56.26-3.74.78 -1.21.53-2.3 1.3-3.22 2.25 -1.01 1.05-1.82 2.27-2.39 3.61 -.67 1.56-1.09 3.23-1.24 4.92l19.64.01Z"/><path d="M235.89 244.02h5.09l.52 6.47h.22c1.11-2.07 2.65-3.88 4.53-5.31 1.65-1.29 3.7-1.99 5.81-2 1.33-.03 2.66.22 3.89.72l-1.21 5.3c-.55-.18-1.1-.33-1.66-.44 -.63-.11-1.26-.16-1.89-.15 -1.78.07-3.48.72-4.85 1.84 -2.02 1.7-3.54 3.91-4.39 6.39v22.87h-6.16l.01-35.75Z"/></g></svg>
